www/assets/images/test_icons/flags/AF.svg

<svg fill="none" height="15" viewBox="0 0 21 15" width="21" xmlns="http://www.w3.org/2000/svg" xmlns:xlink="http://www.w3.org/1999/xlink"><mask id="a" height="15" maskUnits="userSpaceOnUse" width="21" x="0" y="0"><path d="m19 0h-17c-1.10457 0-2 .89543-2 2v11c0 1.1046.89543 2 2 2h17c1.1046 0 2-.8954 2-2v-11c0-1.10457-.8954-2-2-2z" fill="#fff"/></mask><g mask="url(#a)"><path d="m19 0h-17c-1.10457 0-2 .89543-2 2v11c0 1.1046.89543 2 2 2h17c1.1046 0 2-.8954 2-2v-11c0-1.10457-.8954-2-2-2z" fill="#c10000"/><g clip-rule="evenodd" fill-rule="evenodd"><path d="m0 0h7v15h-7z" fill="#000"/><path d="m14 0h7v15h-7z" fill="#009b00"/><path d="m10.5 10c1.38 0 2.5-1.12 2.5-2.5s-1.12-2.5-2.5-2.5-2.5 1.12-2.5 2.5 1.12 2.5 2.5 2.5zm0-1c.828 0 1.5-.895 1.5-2s-.672-2-1.5-2-1.5.895-1.5 2 .672 2 1.5 2zm0-1c.276 0 .5-.448.5-1s-.224-1-.5-1-.5.448-.5 1 .224 1 .5 1z" fill="#fff"/></g><path d="m19 .5h-17c-.82843 0-1.5.67157-1.5 1.5v11c0 .8284.67157 1.5 1.5 1.5h17c.8284 0 1.5-.6716 1.5-1.5v-11c0-.82843-.6716-1.5-1.5-1.5z" stroke="#000" stroke-opacity=".1"/></g></svg>

<svg width="21" height="15" viewBox="0 0 21 15" fill="none" xmlns="http://www.w3.org/2000/svg">
<mask id="mask0_3_212" style="mask-type:alpha" maskUnits="userSpaceOnUse" x="0" y="0" width="21" height="15">
<path d="M19 0H2C0.89543 0 0 0.89543 0 2V13C0 14.1046 0.89543 15 2 15H19C20.1046 15 21 14.1046 21 13V2C21 0.89543 20.1046 0 19 0Z" fill="white"/>
</mask>
<g mask="url(#mask0_3_212)">
<path d="M19 0H2C0.89543 0 0 0.89543 0 2V13C0 14.1046 0.89543 15 2 15H19C20.1046 15 21 14.1046 21 13V2C21 0.89543 20.1046 0 19 0Z" fill="#C10000"/>
<path fill-rule="evenodd" clip-rule="evenodd" d="M0 0H7V15H0V0Z" fill="black"/>
<path fill-rule="evenodd" clip-rule="evenodd" d="M14 0H21V15H14V0Z" fill="#009B00"/>
<path fill-rule="evenodd" clip-rule="evenodd" d="M10.5 10C11.88 10 13 8.88 13 7.5C13 6.12 11.88 5 10.5 5C9.12 5 8 6.12 8 7.5C8 8.88 9.12 10 10.5 10ZM10.5 9C11.328 9 12 8.105 12 7C12 5.895 11.328 5 10.5 5C9.672 5 9 5.895 9 7C9 8.105 9.672 9 10.5 9ZM10.5 8C10.776 8 11 7.552 11 7C11 6.448 10.776 6 10.5 6C10.224 6 10 6.448 10 7C10 7.552 10.224 8 10.5 8Z" fill="white"/>
<path d="M19 0.5H2C1.17157 0.5 0.5 1.17157 0.5 2V13C0.5 13.8284 1.17157 14.5 2 14.5H19C19.8284 14.5 20.5 13.8284 20.5 13V2C20.5 1.17157 19.8284 0.5 19 0.5Z" stroke="black" stroke-opacity="0.1"/>
</g>
</svg>
